src/assets/icons/folder_icon.svg

<svg width="24" height="24" viewBox="0 0 24 24" fill="none" xmlns="http://www.w3.org/2000/svg">
<path fill-rule="evenodd" clip-rule="evenodd" d="M3.375 4.5C3.07663 4.5 2.79048 4.61853 2.5795 4.8295C2.36853 5.04048 2.25 5.32663 2.25 5.625V8.25H21.75V7.125C21.75 6.82663 21.6315 6.54048 21.4205 6.3295C21.2095 6.11853 20.9234 6 20.625 6H10.3177C9.79938 5.99999 9.29269 5.84655 8.86147 5.55904C8.86146 5.55903 8.86144 5.55901 8.86142 5.559L7.55642 4.689C7.37161 4.56577 7.15446 4.50001 6.93234 4.5C6.93234 4.5 6.93235 4.5 6.93234 4.5H3.375ZM21.75 9.75H2.25V18.375C2.25 18.6734 2.36853 18.9595 2.5795 19.1705C2.79048 19.3815 3.07663 19.5 3.375 19.5H20.625C20.9234 19.5 21.2095 19.3815 21.4205 19.1705C21.6315 18.9595 21.75 18.6734 21.75 18.375V9.75ZM0.75 18.375C0.75 19.0712 1.02656 19.7389 1.51884 20.2312C2.01113 20.7234 2.67881 21 3.375 21H20.625C21.3212 21 21.9889 20.7234 22.4812 20.2312C22.9734 19.7389 23.25 19.0712 23.25 18.375V7.125C23.25 6.42881 22.9734 5.76113 22.4812 5.26884C21.9889 4.77656 21.3212 4.5 20.625 4.5H10.3177C10.3177 4.5 10.3177 4.5 10.3177 4.5C10.0956 4.49999 9.87839 4.43423 9.69358 4.311L8.38858 3.441C8.38856 3.44099 8.38854 3.44097 8.38853 3.44096C7.95731 3.15345 7.45064 3.00001 6.93236 3H3.375C2.67881 3 2.01113 3.27656 1.51884 3.76884C1.02656 4.26113 0.75 4.92881 0.75 5.625V18.375Z" fill="#040528"/>
</svg>

<svg xmlns="http://www.w3.org/2000/svg" width="24" height="24" fill="none"><path fill="#040528" fill-rule="evenodd" d="M3.375 4.5A1.125 1.125 0 0 0 2.25 5.625V8.25h19.5V7.125A1.125 1.125 0 0 0 20.625 6H10.318a2.625 2.625 0 0 1-1.457-.441l-1.305-.87a1.125 1.125 0 0 0-.624-.189H3.375ZM21.75 9.75H2.25v8.625A1.125 1.125 0 0 0 3.375 19.5h17.25a1.125 1.125 0 0 0 1.125-1.125V9.75Zm-21 8.625A2.625 2.625 0 0 0 3.375 21h17.25a2.625 2.625 0 0 0 2.625-2.625V7.125A2.625 2.625 0 0 0 20.625 4.5H10.318c-.222 0-.44-.066-.624-.189l-1.305-.87A2.625 2.625 0 0 0 6.932 3H3.375A2.625 2.625 0 0 0 .75 5.625v12.75Z" clip-rule="evenodd"/></svg>
